codes/WF21/WF21_motif.svg

<svg version="1.1" xmlns="http://www.w3.org/2000/svg" xmlns:xlink="http://www.w3.org/1999/xlink" width="400" height="400" viewBox="0 0 400 400"><defs/><g><g><g><g><path fill="none" stroke="#000000" paint-order="fill stroke markers" d=" M 228.5316954888546 209.27050983124843 L 274.6969485464834 194.27050983124843" stroke-linecap="round" stroke-miterlimit="10" stroke-dasharray=""/><g><path fill="none" stroke="#000000" paint-order="fill stroke markers" d=" M 228.5316954888546 190.72949016875157 L 274.6969485464834 205.72949016875157" stroke-linecap="round" stroke-miterlimit="10" stroke-dasharray=""/></g></g><g><path fill="none" stroke="#000000" paint-order="fill stroke markers" d=" M 217.63355756877422 224.27050983124843 L 263.798810626403 239.27050983124843" stroke-linecap="round" stroke-miterlimit="10" stroke-dasharray=""/><g><path fill="none" stroke="#000000" paint-order="fill stroke markers" d=" M 228.53169548885464 209.27050983124843 L 257.0633909777092 248.54101966249686" stroke-linecap="round" stroke-miterlimit="10" stroke-dasharray=""/></g></g><g><path fill="none" stroke="#000000" paint-order="fill stroke markers" d=" M 200 230 L 228.5316954888546 269.27050983124843" stroke-linecap="round" stroke-miterlimit="10" stroke-dasharray=""/><g><path fill="none" stroke="#000000" paint-order="fill stroke markers" d=" M 217.6335575687742 224.27050983124843 L 217.6335575687742 272.8115294937453" stroke-linecap="round" stroke-miterlimit="10" stroke-dasharray=""/></g></g><g><path fill="none" stroke="#000000" paint-order="fill stroke markers" d=" M 182.3664424312258 224.27050983124843 L 182.3664424312258 272.8115294937453" stroke-linecap="round" stroke-miterlimit="10" stroke-dasharray=""/><g><path fill="none" stroke="#000000" paint-order="fill stroke markers" d=" M 200 230 L 171.4683045111454 269.27050983124843" stroke-linecap="round" stroke-miterlimit="10" stroke-dasharray=""/></g></g><g><path fill="none" stroke="#000000" paint-order="fill stroke markers" d=" M 171.4683045111454 209.27050983124843 L 142.93660902229078 248.54101966249686" stroke-linecap="round" stroke-miterlimit="10" stroke-dasharray=""/><g><path fill="none" stroke="#000000" paint-order="fill stroke markers" d=" M 182.3664424312258 224.27050983124843 L 136.201189373597 239.27050983124843" stroke-linecap="round" stroke-miterlimit="10" stroke-dasharray=""/></g></g><g><path fill="none" stroke="#000000" paint-order="fill stroke markers" d=" M 171.4683045111454 190.72949016875157 L 125.30305145351659 205.72949016875157" stroke-linecap="round" stroke-miterlimit="10" stroke-dasharray=""/><g><path fill="none" stroke="#000000" paint-order="fill stroke markers" d=" M 171.4683045111454 209.27050983124843 L 125.30305145351659 194.27050983124843" stroke-linecap="round" stroke-miterlimit="10" stroke-dasharray=""/></g></g><g><path fill="none" stroke="#000000" paint-order="fill stroke markers" d=" M 182.36644243122578 175.72949016875157 L 136.20118937359697 160.72949016875157" stroke-linecap="round" stroke-miterlimit="10" stroke-dasharray=""/><g><path fill="none" stroke="#000000" paint-order="fill stroke markers" d=" M 171.46830451114536 190.72949016875157 L 142.93660902229075 151.45898033750314" stroke-linecap="round" stroke-miterlimit="10" stroke-dasharray=""/></g></g><g><path fill="none" stroke="#000000" paint-order="fill stroke markers" d=" M 199.99999999999997 170 L 171.46830451114536 130.72949016875157" stroke-linecap="round" stroke-miterlimit="10" stroke-dasharray=""/><g><path fill="none" stroke="#000000" paint-order="fill stroke markers" d=" M 182.36644243122578 175.72949016875157 L 182.36644243122578 127.18847050625473" stroke-linecap="round" stroke-miterlimit="10" stroke-dasharray=""/></g></g><g><path fill="none" stroke="#000000" paint-order="fill stroke markers" d=" M 217.6335575687742 175.72949016875157 L 217.6335575687742 127.18847050625473" stroke-linecap="round" stroke-miterlimit="10" stroke-dasharray=""/><g><path fill="none" stroke="#000000" paint-order="fill stroke markers" d=" M 200 170 L 228.5316954888546 130.72949016875157" stroke-linecap="round" stroke-miterlimit="10" stroke-dasharray=""/></g></g><g><path fill="none" stroke="#000000" paint-order="fill stroke markers" d=" M 228.5316954888546 190.72949016875157 L 257.0633909777092 151.45898033750314" stroke-linecap="round" stroke-miterlimit="10" stroke-dasharray=""/><g><path fill="none" stroke="#000000" paint-order="fill stroke markers" d=" M 217.6335575687742 175.72949016875157 L 263.798810626403 160.72949016875157" stroke-linecap="round" stroke-miterlimit="10" stroke-dasharray=""/></g></g><g><path fill="none" stroke="#000000" paint-order="fill stroke markers" d=" M 228.5316954888546 209.27050983124843 L 217.6335575687742 212.81152949374527 L 217.6335575687742 224.27050983124843 L 206.73541964869378 220.72949016875157 L 200 230 L 193.26458035130622 220.72949016875157 L 182.3664424312258 224.27050983124843 L 182.3664424312258 212.81152949374527 L 171.4683045111454 209.27050983124843 L 178.20372415983917 200 L 171.4683045111454 190.72949016875157 L 182.3664424312258 187.18847050625473 L 182.3664424312258 175.72949016875157 L 193.26458035130622 179.27050983124843 L 200 170 L 206.73541964869378 179.27050983124843 L 217.6335575687742 175.72949016875157 L 217.6335575687742 187.18847050625473 L 228.5316954888546 190.72949016875157 L 221.79627584016083 200 L 228.5316954888546 209.27050983124843 L 228.5316954888546 209.27050983124843 Z" stroke-linecap="round" stroke-miterlimit="10" stroke-dasharray=""/></g><g><path fill="none" stroke="#000000" paint-order="fill stroke markers" d=" M 257.0633909777092 151.45898033750316 L 200 72.91796067500633 L 142.93660902229078 151.45898033750316" stroke-linecap="round" stroke-miterlimit="10" stroke-dasharray=""/></g><g><path fill="none" stroke="#000000" paint-order="fill stroke markers" d=" M 274.6969485464834 194.27050983124843 L 274.6969485464834 97.18847050625475 L 182.36644243122578 127.18847050625475" stroke-linecap="round" stroke-miterlimit="10" stroke-dasharray=""/></g><g><path fill="none" stroke="#000000" paint-order="fill stroke markers" d=" M 263.798810626403 239.2705098312484 L 320.8622016041122 160.72949016875157 L 228.5316954888546 130.72949016875157" stroke-linecap="round" stroke-miterlimit="10" stroke-dasharray=""/></g><g><path fill="none" stroke="#000000" paint-order="fill stroke markers" d=" M 228.5316954888546 269.27050983124843 L 320.8622016041122 239.2705098312484 L 263.798810626403 160.72949016875157" stroke-linecap="round" stroke-miterlimit="10" stroke-dasharray=""/></g><g><path fill="none" stroke="#000000" paint-order="fill stroke markers" d=" M 182.36644243122583 272.81152949374524 L 274.69694854648344 302.81152949374524 L 274.69694854648344 205.72949016875157" stroke-linecap="round" stroke-miterlimit="10" stroke-dasharray=""/></g><g><path fill="none" stroke="#000000" paint-order="fill stroke markers" d=" M 142.9366090222908 248.54101966249684 L 200.00000000000003 327.0820393249937 L 257.0633909777092 248.54101966249684" stroke-linecap="round" stroke-miterlimit="10" stroke-dasharray=""/></g><g><path fill="none" stroke="#000000" paint-order="fill stroke markers" d=" M 125.30305145351662 205.72949016875157 L 125.30305145351662 302.81152949374524 L 217.6335575687742 272.81152949374524" stroke-linecap="round" stroke-miterlimit="10" stroke-dasharray=""/></g><g><path fill="none" stroke="#000000" paint-order="fill stroke markers" d=" M 136.201189373597 160.7294901687516 L 79.13779839588781 239.27050983124843 L 171.4683045111454 269.27050983124843" stroke-linecap="round" stroke-miterlimit="10" stroke-dasharray=""/></g><g><path fill="none" stroke="#000000" paint-order="fill stroke markers" d=" M 171.4683045111454 130.72949016875162 L 79.1377983958878 160.72949016875162 L 136.20118937359703 239.27050983124843" stroke-linecap="round" stroke-miterlimit="10" stroke-dasharray=""/></g><g><path fill="none" stroke="#000000" paint-order="fill stroke markers" d=" M 217.63355756877417 127.18847050625473 L 125.30305145351657 97.18847050625476 L 125.3030514535166 194.27050983124843" stroke-linecap="round" stroke-miterlimit="10" stroke-dasharray=""/></g><g><g><path fill="none" stroke="#000000" paint-order="fill stroke markers" d=" M 200 112.18847050625475 L 242.7975432332819 53.28270575938212 L 200 39.37694101250949" stroke-linecap="round" stroke-miterlimit="10" stroke-dasharray=""/><g><path fill="none" stroke="#000000" paint-order="fill stroke markers" d=" M 200 112.18847050625475 L 157.2024567667181 53.28270575938212 L 200 39.37694101250949" stroke-linecap="round" stroke-miterlimit="10" stroke-dasharray=""/></g></g></g><g><g><path fill="none" stroke="#000000" paint-order="fill stroke markers" d=" M 200 287.81152949374524 L 157.20245676671811 346.7172942406179 L 200 360.6230589874905" stroke-linecap="round" stroke-miterlimit="10" stroke-dasharray=""/><g><path fill="none" stroke="#000000" paint-order="fill stroke markers" d=" M 200 287.81152949374524 L 242.7975432332819 346.7172942406179 L 200 360.6230589874905" stroke-linecap="round" stroke-miterlimit="10" stroke-dasharray=""/></g></g></g></g></g></g></svg>

<?xml version="1.0" encoding="utf-8"?>
<!-- Generator: Adobe Illustrator 27.7.0, SVG Export Plug-In . SVG Version: 6.00 Build 0)  -->
<svg version="1.1" xmlns="http://www.w3.org/2000/svg" xmlns:xlink="http://www.w3.org/1999/xlink" x="0px" y="0px"
	 viewBox="0 0 400 400" style="enable-background:new 0 0 400 400;" xml:space="preserve">
<style type="text/css">
	.st0{fill:#FFFFFF;}
	.st1{fill:none;stroke:#000000;stroke-linecap:round;stroke-miterlimit:10;}
</style>
<g id="Layer_2">
	<rect class="st0" width="400" height="400"/>
</g>
<g id="Layer_1">
	<g>
		<g>
			<g>
				<g>
					<path class="st1" d="M228.5,209.3l46.2-15"/>
					<g>
						<path class="st1" d="M228.5,190.7l46.2,15"/>
					</g>
				</g>
				<g>
					<path class="st1" d="M217.6,224.3l46.2,15"/>
					<g>
						<path class="st1" d="M228.5,209.3l28.5,39.3"/>
					</g>
				</g>
				<g>
					<path class="st1" d="M200,230l28.5,39.3"/>
					<g>
						<path class="st1" d="M217.6,224.3v48.5"/>
					</g>
				</g>
				<g>
					<path class="st1" d="M182.4,224.3v48.5"/>
					<g>
						<path class="st1" d="M200,230l-28.5,39.3"/>
					</g>
				</g>
				<g>
					<path class="st1" d="M171.5,209.3l-28.5,39.3"/>
					<g>
						<path class="st1" d="M182.4,224.3l-46.2,15"/>
					</g>
				</g>
				<g>
					<path class="st1" d="M171.5,190.7l-46.2,15"/>
					<g>
						<path class="st1" d="M171.5,209.3l-46.2-15"/>
					</g>
				</g>
				<g>
					<path class="st1" d="M182.4,175.7l-46.2-15"/>
					<g>
						<path class="st1" d="M171.5,190.7l-28.5-39.3"/>
					</g>
				</g>
				<g>
					<path class="st1" d="M200,170l-28.5-39.3"/>
					<g>
						<path class="st1" d="M182.4,175.7v-48.5"/>
					</g>
				</g>
				<g>
					<path class="st1" d="M217.6,175.7v-48.5"/>
					<g>
						<path class="st1" d="M200,170l28.5-39.3"/>
					</g>
				</g>
				<g>
					<path class="st1" d="M228.5,190.7l28.5-39.3"/>
					<g>
						<path class="st1" d="M217.6,175.7l46.2-15"/>
					</g>
				</g>
				<g>
					<path class="st1" d="M228.5,209.3l-10.9,3.5v11.5l-10.9-3.5L200,230l-6.7-9.3l-10.9,3.5v-11.5l-10.9-3.5l6.7-9.3l-6.7-9.3
						l10.9-3.5v-11.5l10.9,3.5l6.7-9.3l6.7,9.3l10.9-3.5v11.5l10.9,3.5l-6.7,9.3L228.5,209.3L228.5,209.3z"/>
				</g>
				<g>
					<path class="st1" d="M257.1,151.5L200,72.9l-57.1,78.5"/>
				</g>
				<g>
					<path class="st1" d="M274.7,194.3V97.2l-92.3,30"/>
				</g>
				<g>
					<path class="st1" d="M263.8,239.3l57.1-78.5l-92.3-30"/>
				</g>
				<g>
					<path class="st1" d="M228.5,269.3l92.3-30l-57.1-78.5"/>
				</g>
				<g>
					<path class="st1" d="M182.4,272.8l92.3,30v-97.1"/>
				</g>
				<g>
					<path class="st1" d="M142.9,248.5l57.1,78.5l57.1-78.5"/>
				</g>
				<g>
					<path class="st1" d="M125.3,205.7v97.1l92.3-30"/>
				</g>
				<g>
					<path class="st1" d="M136.2,160.7l-57.1,78.5l92.3,30"/>
				</g>
				<g>
					<path class="st1" d="M171.5,130.7l-92.3,30l57.1,78.5"/>
				</g>
				<g>
					<path class="st1" d="M217.6,127.2l-92.3-30v97.1"/>
				</g>
				<g>
					<g>
						<path class="st1" d="M200,112.2l42.8-58.9L200,39.4"/>
						<g>
							<path class="st1" d="M200,112.2l-42.8-58.9L200,39.4"/>
						</g>
					</g>
				</g>
				<g>
					<g>
						<path class="st1" d="M200,287.8l-42.8,58.9l42.8,13.9"/>
						<g>
							<path class="st1" d="M200,287.8l42.8,58.9L200,360.6"/>
						</g>
					</g>
				</g>
			</g>
		</g>
	</g>
</g>
</svg>
